modules/themify-icons/icons/layout-media-left-alt.svg

<?xml version="1.0" encoding="utf-8"?>
<!-- Generated by IcoMoon.io -->
<!DOCTYPE svg PUBLIC "-//W3C//DTD SVG 1.1//EN" "http://www.w3.org/Graphics/SVG/1.1/DTD/svg11.dtd">
<svg version="1.1" xmlns="http://www.w3.org/2000/svg" xmlns:xlink="http://www.w3.org/1999/xlink" width="17" height="17" viewBox="0 0 17 17">
<g>
</g>
	<path d="M0 13h15v1h-15v-1zM0 15.993h10v-1h-10v1zM17 1v11h-17v-11h17zM16 2h-15v9h15v-9z" fill="#000000" />
</svg>

<svg xmlns="http://www.w3.org/2000/svg" width="17" height="17"><path d="M0 13h15v1H0v-1zm0 2.993h10v-1H0v1zM17 1v11H0V1h17zm-1 1H1v9h15V2z"/></svg>
